X:1
T: The Bonny Lass of Rothiemay
C:Alexander Walker
R:Strathspey
Q:128
K:G
M:4/4
L:1/16
|:D2|DG3 G3E A3G A3B|d3e dB3 A4 A3B|DG3 G3E A3G A3B|GE3 D3B, G,4 G,3E|
DG3 G3E A3G A3B|dB3 g3B A4 A3f|g3a e3g d3e g3a|ge3 d3B G6a2|
ge3 d3c B3d G3b|g3B b3B A4 A3a|gd3 d3e g3a b3a|g3e d3c BG3 G3a|
ge3 d3c B3d G3b|g3a b3g e4 e3f|g3b e3g d3g B3G|cA3 d3F G6:|
